src/assets/images/homepage/partner-7.svg

<svg width="166" height="38" viewBox="0 0 166 38" fill="none" xmlns="http://www.w3.org/2000/svg">
<g id="Vector">
<path d="M17.1543 5.75021V0.309479H0V37.6905H17.1543V32.2498C13.6402 32.2498 10.2701 30.8538 7.78529 28.369C5.30048 25.8841 3.90453 22.5141 3.90453 19C3.90453 15.4859 5.30048 12.1158 7.78529 9.63099C10.2701 7.14618 13.6402 5.75021 17.1543 5.75021Z" fill="#394149"/>
<path d="M17.1543 5.75021V32.2498C20.6684 32.2498 24.0386 30.8538 26.5234 28.369C29.0082 25.8841 30.4041 22.5141 30.4041 19C30.4041 15.4859 29.0082 12.1158 26.5234 9.63099C24.0386 7.14618 20.6684 5.75021 17.1543 5.75021Z" fill="#394149"/>
<path d="M40.031 9.07867H43.8715V27.5772H40.031V9.07867Z" fill="#394149"/>
<path d="M46.0222 21.2403C46.0222 19.9094 46.4174 18.6085 47.1576 17.5025C47.8978 16.3964 48.9497 15.535 50.1801 15.0274C51.4104 14.5199 52.7637 14.3891 54.0685 14.6515C55.3732 14.914 56.5707 15.5579 57.5091 16.5016C58.4474 17.4455 59.0846 18.6466 59.3396 19.9528C59.5945 21.2591 59.456 22.6116 58.9413 23.8391C58.4267 25.0664 57.5594 26.1134 56.4491 26.8472C55.3388 27.5811 54.0356 27.9688 52.7047 27.9612C51.822 27.9681 50.9468 27.7988 50.1304 27.4629C49.314 27.1271 48.5728 26.6316 47.9504 26.0058C47.328 25.3798 46.8369 24.6357 46.5057 23.8174C46.1747 22.9991 46.0103 22.123 46.0222 21.2403ZM55.6491 21.2403C55.634 20.6665 55.45 20.1099 55.1203 19.6402C54.7905 19.1704 54.3296 18.8082 53.795 18.5991C53.2606 18.3899 52.6763 18.3429 52.1153 18.4641C51.5542 18.5852 51.0414 18.8691 50.6408 19.2802C50.2402 19.6913 49.9697 20.2113 49.8632 20.7754C49.7567 21.3394 49.8188 21.9223 50.0418 22.4511C50.2648 22.9799 50.6388 23.4315 51.117 23.7488C51.5952 24.0663 52.1563 24.2357 52.7303 24.2359C53.1211 24.2436 53.5093 24.1705 53.8706 24.0212C54.2318 23.8721 54.5584 23.65 54.8299 23.3689C55.1014 23.0877 55.312 22.7535 55.4486 22.3874C55.5852 22.0211 55.6448 21.6306 55.6235 21.2403H55.6491Z" fill="#394149"/>
<path d="M74.5829 14.9035V26.9499C74.5829 31.2001 71.2544 33.0051 67.8876 33.0051C66.6999 33.1025 65.5087 32.8666 64.4481 32.3238C63.3874 31.781 62.4992 30.9529 61.8835 29.9327L65.1224 28.0636C65.3848 28.5929 65.8023 29.0294 66.3192 29.3153C66.8362 29.6011 67.4278 29.7227 68.0156 29.6639C68.39 29.7099 68.77 29.6728 69.1283 29.555C69.4867 29.4371 69.8146 29.2416 70.0886 28.9823C70.3626 28.7229 70.5759 28.4063 70.7133 28.0549C70.8506 27.7037 70.9086 27.3263 70.8832 26.9499V25.7849C70.4363 26.3268 69.8691 26.757 69.227 27.0414C68.5847 27.3259 67.8851 27.4567 67.1835 27.4235C65.4858 27.4235 63.8578 26.7492 62.6574 25.5487C61.457 24.3484 60.7826 22.7203 60.7826 21.0227C60.7826 19.325 61.457 17.6971 62.6574 16.4966C63.8578 15.2962 65.4858 14.6218 67.1835 14.6218C67.8851 14.5887 68.5847 14.7195 69.227 15.004C69.8691 15.2884 70.4363 15.7185 70.8832 16.2604V14.9803L74.5829 14.9035ZM70.8832 20.9843C70.9086 20.3718 70.7504 19.7657 70.4287 19.2439C70.107 18.7221 69.6367 18.3085 69.0779 18.0561C68.5192 17.8038 67.8979 17.7244 67.2937 17.8281C66.6896 17.9318 66.1301 18.2139 65.6876 18.638C65.245 19.0621 64.9395 19.609 64.8102 20.2082C64.6809 20.8075 64.7337 21.4316 64.962 22.0005C65.1904 22.5694 65.5836 23.057 66.0912 23.4006C66.5989 23.7442 67.1978 23.9282 67.8108 23.9287C68.2108 23.9575 68.6124 23.9021 68.9895 23.7661C69.3668 23.63 69.7114 23.4164 70.0009 23.1388C70.2904 22.8614 70.5186 22.5262 70.6705 22.1551C70.8225 21.784 70.8949 21.3851 70.8832 20.9843Z" fill="#394149"/>
<path d="M76.7464 21.2403C76.7464 19.9105 77.1409 18.6106 77.88 17.505C78.619 16.3995 79.6694 15.538 80.8982 15.0298C82.1271 14.5215 83.479 14.3891 84.7832 14.6495C86.0873 14.9099 87.2847 15.5512 88.2243 16.4924C89.1636 17.4337 89.8027 18.6325 90.0605 19.937C90.3185 21.2416 90.1836 22.5933 89.6729 23.8211C89.1622 25.0491 88.2988 26.0978 87.1919 26.8348C86.085 27.5718 84.7843 27.9638 83.4545 27.9612C82.5701 27.9698 81.6928 27.8017 80.8743 27.4668C80.0557 27.1319 79.3122 26.637 78.6875 26.011C78.0626 25.385 77.5691 24.6406 77.2358 23.8214C76.9025 23.0022 76.7361 22.1247 76.7464 21.2403ZM86.3733 21.2403C86.3581 20.666 86.1738 20.1089 85.8435 19.6388C85.5132 19.1689 85.0515 18.8067 84.5162 18.5979C83.981 18.3891 83.3961 18.3429 82.8347 18.4652C82.2734 18.5873 81.7605 18.8725 81.3605 19.2849C80.9604 19.6972 80.6909 20.2185 80.586 20.7833C80.4809 21.3481 80.5448 21.9314 80.7697 22.4599C80.9946 22.9886 81.3706 23.4391 81.8505 23.7551C82.3303 24.0709 82.8927 24.2382 83.4673 24.2359C83.8581 24.2436 84.2463 24.1705 84.6075 24.0212C84.9688 23.8721 85.2953 23.65 85.5669 23.3689C85.8384 23.0877 86.049 22.7535 86.1856 22.3874C86.3222 22.0211 86.3817 21.6306 86.3605 21.2403H86.3733Z" fill="#394149"/>
<path d="M91.942 11.511C91.942 11.0604 92.0756 10.6197 92.326 10.245C92.5765 9.87028 92.9323 9.57822 93.3487 9.40575C93.7651 9.23328 94.2233 9.18815 94.6653 9.27608C95.1072 9.364 95.5133 9.58103 95.8321 9.89971C96.1507 10.2184 96.3677 10.6245 96.4556 11.0664C96.5436 11.5084 96.4984 11.9666 96.326 12.3831C96.1535 12.7994 95.8614 13.1553 95.4867 13.4057C95.112 13.6561 94.6715 13.7897 94.2207 13.7897C93.6184 13.7831 93.0427 13.5408 92.6168 13.1149C92.1909 12.689 91.9487 12.1133 91.942 11.511ZM92.3133 14.9035H96.1538V27.5772H92.3133V14.9035Z" fill="#394149"/>
<path d="M112.591 21.2403C112.634 22.0832 112.51 22.9263 112.226 23.721C111.942 24.5158 111.504 25.2465 110.936 25.8711C110.369 26.4958 109.683 27.002 108.919 27.3607C108.155 27.7194 107.328 27.9235 106.485 27.9612C105.769 28.0088 105.052 27.8943 104.387 27.6261C103.722 27.3577 103.126 26.9428 102.644 26.4122V32.6723H98.8037V14.9035H102.644V16.094C103.127 15.5649 103.723 15.1519 104.388 14.8859C105.054 14.6198 105.77 14.5076 106.485 14.5578C107.325 14.5956 108.149 14.7985 108.91 15.1548C109.671 15.511 110.355 16.0139 110.922 16.6344C111.489 17.2549 111.928 17.981 112.215 18.7714C112.501 19.5616 112.629 20.4005 112.591 21.2403ZM108.751 21.2403C108.736 20.6457 108.545 20.0688 108.204 19.582C107.862 19.0951 107.384 18.7198 106.83 18.5033C106.276 18.2867 105.671 18.2386 105.09 18.3647C104.508 18.4908 103.977 18.7857 103.563 19.2124C103.149 19.6391 102.869 20.1785 102.76 20.7633C102.651 21.348 102.717 21.9518 102.95 22.4992C103.183 23.0465 103.572 23.513 104.069 23.8402C104.565 24.1674 105.147 24.3406 105.742 24.3383C106.15 24.3556 106.556 24.2866 106.935 24.1358C107.314 23.985 107.657 23.7559 107.941 23.4633C108.225 23.1708 108.444 22.8215 108.583 22.4384C108.723 22.0553 108.78 21.647 108.751 21.2403Z" fill="#394149"/>
<path d="M124.279 23.7751C124.279 26.6939 121.719 27.9356 119.005 27.9356C117.898 28.0352 116.787 27.8006 115.814 27.262C114.842 26.7234 114.054 25.9056 113.551 24.9144L116.854 23.0454C116.985 23.5021 117.269 23.9001 117.658 24.1728C118.047 24.4455 118.518 24.5762 118.992 24.5432C119.901 24.5432 120.362 24.2615 120.362 23.7495C120.362 22.3541 114.127 23.0966 114.127 18.7056C114.127 15.9404 116.457 14.5578 119.094 14.5578C120.097 14.5129 121.093 14.7404 121.976 15.216C122.86 15.6915 123.598 16.3976 124.113 17.259L120.81 19C120.664 18.6697 120.426 18.3889 120.123 18.1912C119.821 17.9935 119.468 17.8877 119.107 17.8863C118.442 17.8863 118.045 18.1423 118.045 18.5904C118.045 20.0498 124.279 19.0896 124.279 23.7751Z" fill="#394149"/>
<path d="M138.195 14.9035V27.5772H134.354V26.3866C133.918 26.9137 133.363 27.3306 132.737 27.6042C132.11 27.8778 131.428 28 130.744 27.9612C128.184 27.9612 125.995 26.1306 125.995 22.7125V14.9035H129.835V22.1364C129.804 22.4388 129.84 22.7441 129.94 23.0314C130.04 23.3185 130.2 23.5807 130.41 23.7999C130.621 24.0189 130.877 24.1897 131.16 24.3004C131.443 24.411 131.746 24.4589 132.05 24.4407C133.432 24.4407 134.405 23.6214 134.405 21.8804V14.9035H138.195Z" fill="#394149"/>
<path d="M159.958 19.7937V27.5772H156.117V20.1266C156.117 18.8464 155.515 18.0527 154.299 18.0527C153.083 18.0527 152.315 18.936 152.315 20.4338V27.5772H148.474V20.1266C148.474 18.8464 147.873 18.0527 146.657 18.0527C145.44 18.0527 144.672 18.936 144.672 20.4338V27.5772H140.832V14.9035H144.672V16.0684C145.07 15.5538 145.589 15.1462 146.184 14.8825C146.778 14.6187 147.43 14.5071 148.078 14.5578C148.727 14.5239 149.374 14.6596 149.956 14.9513C150.537 15.2431 151.032 15.681 151.393 16.222C151.816 15.6567 152.374 15.2076 153.016 14.9166C153.658 14.6255 154.365 14.5021 155.067 14.5578C158.063 14.5578 159.958 16.6317 159.958 19.7937Z" fill="#394149"/>
<path d="M163.184 14.8266C164.739 14.8266 166 13.5657 166 12.0103C166 10.4549 164.739 9.19389 163.184 9.19389C161.628 9.19389 160.367 10.4549 160.367 12.0103C160.367 13.5657 161.628 14.8266 163.184 14.8266Z" fill="#394149"/>
</g>
</svg>

<svg xmlns="http://www.w3.org/2000/svg" width="166" height="38" fill="none"><g fill="#394149"><path d="M17.154 5.75V.31H0v37.38h17.154v-5.44a13.25 13.25 0 0 1 0-26.5M17.154 5.75v26.5a13.25 13.25 0 0 0 0-26.5M40.031 9.079h3.84v18.498h-3.84zM46.022 21.24a6.72 6.72 0 1 1 6.683 6.721 6.63 6.63 0 0 1-6.683-6.72m9.627 0a2.919 2.919 0 1 0-2.919 2.996 2.84 2.84 0 0 0 2.894-2.996z"/><path d="M74.583 14.904V26.95c0 4.25-3.329 6.055-6.695 6.055a6.4 6.4 0 0 1-6.005-3.072l3.24-1.87a2.905 2.905 0 0 0 2.893 1.6 2.562 2.562 0 0 0 2.867-2.713v-1.165a4.52 4.52 0 0 1-3.7 1.639 6.4 6.4 0 1 1 0-12.802 4.52 4.52 0 0 1 3.7 1.638v-1.28zm-3.7 6.08a3.074 3.074 0 1 0-3.072 2.945 2.87 2.87 0 0 0 3.072-2.945M76.746 21.24a6.721 6.721 0 1 1 6.709 6.721 6.643 6.643 0 0 1-6.709-6.72m9.627 0a2.92 2.92 0 0 0-5.013-1.955 2.917 2.917 0 0 0 .49 4.47 2.9 2.9 0 0 0 1.617.48 2.84 2.84 0 0 0 2.719-1.848c.136-.366.196-.756.174-1.147zM91.942 11.511a2.279 2.279 0 1 1 2.279 2.279 2.304 2.304 0 0 1-2.279-2.279m.371 3.393h3.84v12.673h-3.84zM112.591 21.24a6.4 6.4 0 0 1-6.106 6.721 4.76 4.76 0 0 1-3.841-1.549v6.26h-3.84V14.904h3.84v1.19a4.75 4.75 0 0 1 3.841-1.536 6.4 6.4 0 0 1 5.73 4.213c.286.79.414 1.63.376 2.47m-3.84 0a3.02 3.02 0 0 0-1.921-2.737 3.02 3.02 0 0 0-4.07 2.26 3.02 3.02 0 0 0 2.982 3.575 2.893 2.893 0 0 0 3.009-3.098M124.279 23.775c0 2.919-2.56 4.16-5.274 4.16a5.56 5.56 0 0 1-5.454-3.02l3.303-1.87a2.076 2.076 0 0 0 2.138 1.498c.909 0 1.37-.281 1.37-.793 0-1.396-6.235-.653-6.235-5.044 0-2.766 2.33-4.148 4.967-4.148a5.55 5.55 0 0 1 5.019 2.701L120.81 19a1.87 1.87 0 0 0-1.703-1.114c-.665 0-1.062.256-1.062.704 0 1.46 6.234.5 6.234 5.185M138.195 14.904v12.673h-3.841v-1.19a4.37 4.37 0 0 1-3.61 1.574c-2.56 0-4.749-1.83-4.749-5.248v-7.81h3.84v7.233c-.031.303.005.608.105.895s.26.55.47.769a2.1 2.1 0 0 0 1.64.64c1.382 0 2.355-.819 2.355-2.56v-6.976zM159.958 19.794v7.783h-3.841v-7.45c0-1.28-.602-2.074-1.818-2.074s-1.984.883-1.984 2.38v7.144h-3.841v-7.45c0-1.28-.601-2.074-1.817-2.074-1.217 0-1.985.883-1.985 2.38v7.144h-3.84V14.903h3.84v1.165a3.92 3.92 0 0 1 3.406-1.51 3.75 3.75 0 0 1 3.315 1.664 4.172 4.172 0 0 1 3.674-1.664c2.996 0 4.891 2.074 4.891 5.236M163.184 14.827a2.816 2.816 0 1 0 0-5.633 2.816 2.816 0 0 0 0 5.633"/></g></svg>
